gama.ui.shared/icons_svg/dark/agents/action.highlight.svg

<svg height="25" viewBox="-850.997 -3602.725 25 25" width="25" xmlns="http://www.w3.org/2000/svg"><g fill="none"><circle cx="-838.497" cy="-3590.225" fill="#666" r="12"/><circle cx="-838.497" cy="-3590.225" r="12" stroke="#fff" stroke-linecap="round" stroke-linejoin="round" stroke-width=".25"/><path d="m-838.497-3586.0344c-2.3143 0-4.1905-1.8761-4.1905-4.1906 0-2.3142 1.8762-4.1904 4.1905-4.1904 2.3144 0 4.1905 1.8762 4.1905 4.1904 0 2.3145-1.8761 4.1906-4.1905 4.1906zm0-.7619c1.8936 0 3.4286-1.535 3.4286-3.4287 0-1.8934-1.535-3.4285-3.4286-3.4285-1.8935 0-3.4285 1.5351-3.4285 3.4285 0 1.8937 1.535 3.4287 3.4285 3.4287zm.381-8.7619c0 .2102-.1706.3809-.381.3809s-.3809-.1707-.3809-.3809v-2.2858c0-.2103.1705-.381.3809-.381s.381.1707.381.381zm0 12.9522c0 .2106-.1706.381-.381.381s-.3809-.1704-.3809-.381v-2.2856c0-.2104.1705-.3809.3809-.3809s.381.1705.381.3809zm3.6596-11.1207c-.1487.1487-.3899.1487-.5387 0-.1488-.1488-.1488-.39 0-.5388l1.5621-1.5621c.1488-.1488.39-.1488.5387 0 .1488.1486.1488.39 0 .5386zm-9.1045 9.1047c-.1488.1486-.39.1486-.5388 0-.1488-.149-.1488-.39 0-.539l1.5621-1.562c.1488-.149.39-.149.5388 0 .1487.1487.1487.39 0 .5387zm10.3973-5.222c-.2104 0-.381-.1705-.381-.381 0-.2103.1706-.381.381-.381h2.2857c.2104 0 .3809.1707.3809.381 0 .2105-.1705.381-.3809.381zm-12.9524 0c-.2104 0-.381-.1705-.381-.381 0-.2103.1706-.381.381-.381h2.2857c.2104 0 .3809.1707.3809.381 0 .2105-.1705.381-.3809.381zm11.1209 3.6597c-.1488-.1487-.1488-.39 0-.5387.1488-.149.39-.149.5387 0l1.5621 1.562c.1488.149.1488.39 0 .539-.1487.1486-.3899.1486-.5387 0zm-9.1046-9.1047c-.1488-.1486-.1488-.39 0-.5386.1488-.1488.39-.1488.5388 0l1.5621 1.5621c.1487.1488.1487.39 0 .5388-.1488.1487-.39.1487-.5388 0z" fill="#c0e0ff"/></g></svg>

<?xml version="1.0" encoding="UTF-8" standalone="no"?>
<!DOCTYPE svg PUBLIC "-//W3C//DTD SVG 1.1//EN" "http://www.w3.org/Graphics/SVG/1.1/DTD/svg11.dtd">
<svg xmlns="http://www.w3.org/2000/svg" xmlns:xl="http://www.w3.org/1999/xlink" version="1.1" xmlns:dc="http://purl.org/dc/elements/1.1/" viewBox="-850.997 -3602.725 24.999996 25" width="24.999996" height="25">
  <defs/>
  <g id="SOURCES" stroke-opacity="1" fill="none" stroke="none" fill-opacity="1" stroke-dasharray="none">
    <title>SOURCES</title>
    <g id="SOURCES_Dark">
      <title>Dark</title>
      <g id="Graphic_11554">
        <circle cx="-838.497" cy="-3590.225" r="12.000018268838" fill="#666"/>
        <circle cx="-838.497" cy="-3590.225" r="12.000018268838" stroke="white" stroke-linecap="round" stroke-linejoin="round" stroke-width=".25"/>
      </g>
      <g id="Graphic_11553">
        <path d="M -838.497 -3586.0344 C -840.8113 -3586.0344 -842.6875 -3587.9105 -842.6875 -3590.225 C -842.6875 -3592.5392 -840.8113 -3594.4154 -838.497 -3594.4154 C -836.1826 -3594.4154 -834.3065 -3592.5392 -834.3065 -3590.225 C -834.3065 -3587.9105 -836.1826 -3586.0344 -838.497 -3586.0344 Z M -838.497 -3586.7963 C -836.6034 -3586.7963 -835.0684 -3588.3313 -835.0684 -3590.225 C -835.0684 -3592.1184 -836.6034 -3593.6535 -838.497 -3593.6535 C -840.3905 -3593.6535 -841.9255 -3592.1184 -841.9255 -3590.225 C -841.9255 -3588.3313 -840.3905 -3586.7963 -838.497 -3586.7963 Z M -838.116 -3595.5582 C -838.116 -3595.348 -838.2866 -3595.1773 -838.497 -3595.1773 C -838.7074 -3595.1773 -838.8779 -3595.348 -838.8779 -3595.5582 L -838.8779 -3597.844 C -838.8779 -3598.0543 -838.7074 -3598.225 -838.497 -3598.225 C -838.2866 -3598.225 -838.116 -3598.0543 -838.116 -3597.844 Z M -838.116 -3582.606 C -838.116 -3582.3954 -838.2866 -3582.225 -838.497 -3582.225 C -838.7074 -3582.225 -838.8779 -3582.3954 -838.8779 -3582.606 L -838.8779 -3584.8916 C -838.8779 -3585.102 -838.7074 -3585.2725 -838.497 -3585.2725 C -838.2866 -3585.2725 -838.116 -3585.102 -838.116 -3584.8916 Z M -834.4564 -3593.7267 C -834.6051 -3593.578 -834.8463 -3593.578 -834.9951 -3593.7267 C -835.1439 -3593.8755 -835.1439 -3594.1167 -834.9951 -3594.2655 L -833.433 -3595.8276 C -833.2842 -3595.9764 -833.043 -3595.9764 -832.8943 -3595.8276 C -832.7455 -3595.679 -832.7455 -3595.4376 -832.8943 -3595.289 Z M -843.5609 -3584.622 C -843.7097 -3584.4734 -843.9509 -3584.4734 -844.0997 -3584.622 C -844.2485 -3584.771 -844.2485 -3585.012 -844.0997 -3585.161 L -842.5376 -3586.723 C -842.3888 -3586.872 -842.1476 -3586.872 -841.9988 -3586.723 C -841.8501 -3586.5743 -841.8501 -3586.333 -841.9988 -3586.1843 Z M -833.1636 -3589.844 C -833.374 -3589.844 -833.5446 -3590.0145 -833.5446 -3590.225 C -833.5446 -3590.4353 -833.374 -3590.606 -833.1636 -3590.606 L -830.8779 -3590.606 C -830.6675 -3590.606 -830.497 -3590.4353 -830.497 -3590.225 C -830.497 -3590.0145 -830.6675 -3589.844 -830.8779 -3589.844 Z M -846.116 -3589.844 C -846.3264 -3589.844 -846.497 -3590.0145 -846.497 -3590.225 C -846.497 -3590.4353 -846.3264 -3590.606 -846.116 -3590.606 L -843.8303 -3590.606 C -843.6199 -3590.606 -843.4494 -3590.4353 -843.4494 -3590.225 C -843.4494 -3590.0145 -843.6199 -3589.844 -843.8303 -3589.844 Z M -834.9951 -3586.1843 C -835.1439 -3586.333 -835.1439 -3586.5743 -834.9951 -3586.723 C -834.8463 -3586.872 -834.6051 -3586.872 -834.4564 -3586.723 L -832.8943 -3585.161 C -832.7455 -3585.012 -832.7455 -3584.771 -832.8943 -3584.622 C -833.043 -3584.4734 -833.2842 -3584.4734 -833.433 -3584.622 Z M -844.0997 -3595.289 C -844.2485 -3595.4376 -844.2485 -3595.679 -844.0997 -3595.8276 C -843.9509 -3595.9764 -843.7097 -3595.9764 -843.5609 -3595.8276 L -841.9988 -3594.2655 C -841.8501 -3594.1167 -841.8501 -3593.8755 -841.9988 -3593.7267 C -842.1476 -3593.578 -842.3888 -3593.578 -842.5376 -3593.7267 Z" fill="#c0e0ff"/>
      </g>
    </g>
  </g>
</svg>
